resources/haticons/SVG/dart.svg

<!-- Generated by IcoMoon.io -->
<svg version="1.1" xmlns="http://www.w3.org/2000/svg" width="24" height="24" viewBox="0 0 24 24">
<title>dart</title>
<path fill="#0175c2" d="M4.105 4.105c0 0 5.053-2.525 7.579-3.789 0.397-0.2 0.866-0.317 1.361-0.317 0.042 0 0.084 0.001 0.126 0.003l-0.006-0c0.766 0.047 1.677 0.788 1.677 0.788l9.158 9.159v9.789h-4.263v4.263h-9.948l-9-9c-0.486-0.5-0.789-1.205-0.789-1.895 0-0.319 0.18-0.818 0.316-1.105zM4.784 4.784v11.787c0.002 0.543 0.021 1.024 0.498 1.508l4.922 4.921h8.533v-4.263zM16.839 4.106c-0.899-0.896-1.809-1.78-2.74-2.643-0.302-0.267-0.567-0.468-1.070-0.462-0.37 0.014-0.87 0.195-0.87 0.195l-5.818 2.909z"></path>
</svg>

<svg xmlns="http://www.w3.org/2000/svg" width="24" height="24"><path fill="#0175c2" d="M4.105 4.105S9.158 1.58 11.684.316a3.038 3.038 0 0 1 1.487-.314h-.006c.766.047 1.677.788 1.677.788L24 9.949v9.789h-4.263v4.263H9.789l-9-9C.303 14.501 0 13.796 0 13.106c0-.319.18-.818.316-1.105zm.679.679v11.787c.002.543.021 1.024.498 1.508L10.204 23h8.533v-4.263zm12.055-.678c-.899-.896-1.809-1.78-2.74-2.643-.302-.267-.567-.468-1.07-.462-.37.014-.87.195-.87.195L6.341 4.105z"/></svg>
